X: 231
T: 232. Die Sonn hat sich mit ihrem Glanz
N: Derived from chor232.krn
C: Johann Sebastian Bach
%%abc-version 2.0
%%abcx-abcm2ps-target-version 5.9.1 (29 Sep 2008)
%%abc-creator hum2abc beta
%%abcx-conversion-date 2019/03/11 17:28:19
%%abc-edited-by Craig Stuart Sapp
%%humdrum-veritas 3842408295
%%humdrum-veritas-data 968198113
%%
%%barnumbers 0
L: 1/4
M: C
%%staves [1 2 3 4]
V: 1 clef=treble
V: 2 clef=treble
V: 3 clef=treble-8
V: 4 clef=bass
K: C
[V:1] D [I:setbarnb 1]| 
[V:2] A, | 
[V:3] F | 
[V:4] D, | 
[V:1] FG!fermata!Ad | 
[V:2] D3/E/!fermata!FA | 
[V:3] A_B!fermata!df | 
[V:4] D,G,,!fermata!D,,D, | 
[V:1] c3/=B/ A/B/c | 
[V:2] A^GA/G/A | 
[V:3] ee3//d// c/d/ e/f/ | 
[V:4] A,E,F,C,/D,/ | 
[V:1] B2!fermata!Ad | 
[V:2] A/^G//^F//G!fermata!EA | 
[V:3] B/ed/!fermata!^cd | 
[V:4] E,E,,!fermata!A,,F, | 
[V:1] dd!fermata!^ce | 
[V:2] A/=G/=B!fermata!AA/=G/ | 
[V:3] d/e/=f!fermata!eA | 
[V:4] _B,A,/^G,/!fermata!A,^C, | 
[V:1] dA_BA/G/ | 
[V:2] FFGF | 
[V:3] Ad-d/=c/c | 
[V:4] D,/E,/F,-F,/E,/F, | 
[V:1] G2!fermata!FF | 
[V:2] F/E//D//E!fermata!CD | 
[V:3] d/_B/ G/c//_B//!fermata!A_B | 
[V:4] _B,,C,!fermata!F,,B,, | 
[V:1] EE!fermata!DA | 
[V:2] D^C!fermata!A,F- | 
[V:3] _BA/G/!fermata!Fd | 
[V:4] G,,A,,!fermata!D,,D, | 
[V:1] =ccG/A/_B | 
[V:2] F/E/FEF/G/ | 
[V:3] =ccc/A/ d/c/ | 
[V:4] A,,/G,,/A,,/_B,,/C,D,/E,/ | 
[V:1] !fermata!AAcd | 
[V:2] !fermata!FFFF | 
[V:3] !fermata!cdc3/_B/ | 
[V:4] !fermata!F,D,A,,_B,, | 
[V:1] !fermata!AcAG/F/ | 
[V:2] !fermata!FG-G/F//E//D | 
[V:3] !fermata!ccc_B- | 
[V:4] !fermata!F,,E,,F,,_B,, | 
[V:1] E3/D/!fermata!D2 |]  
[V:2] D^C!fermata!A,2 |]  
[V:3] B/G/ E/A//G//!fermata!^F2 |]  
[V:4] G,,A,,!fermata!D,,2 |]  



